X:9
T:Ashover simple chords 32
M:3/4
L:1/8
K:A
[eA,CE]>A a>e [fD,F,A,]>e | d>c [BE,G,B,]>c d>e | [cA,CE]>B A>e [eA,CE]>A | a>e [fD,F,A,]>e d>c | [BE,G,B,]>d c>B [A3A,3C3E3] |
e [eA,CE]>A a>e | [fD,F,A,]>e d>c [BE,G,B,]>c | d>e [cA,CE]>B A>e | [eA,CE]>A a>e [fD,F,A,]>e |
d>c [BE,G,B,]>d c>B | [A2A,2C2E2]>e2 [eA,CE][B3/2E,3/2G,3/2B,3/2] |d/c>e[dB,DF]>cB3/2 |c/[cA,CE]>ed>f[e3/2A,3/2C3/2E3/2] |
d/c>e[eA,CE]>ca3/2 |e/[fD,F,A,]>ed>c[B3/2E,3/2G,3/2B,3/2] |d/c>B[A3A,3C3E3] | e[BE,G,B,]>dc>e[d3/2B,3/2D3/2F3/2] |
c/B>c[cA,CE]>ed3/2 |f/[eA,CE]>dc>e[e3/2A,3/2C3/2E3/2] |c/a>e[fD,F,A,]>ed3/2 |c/[BE,G,B,]>dc>B[A3A,3C3E3] |


